X:3
T:A Horn pyp
N: Janet Sinklers' Fiddle MS; 1710, NLS MS 3296
N: transposed
M:3/2
L:1/4
K:A
A/B/c/d/ eAe2|gd2GB/c/d/B/|A/B/c/d/ eAc/d/e|ae2dc B/A/||
A/B/c/A/ B/c/d/B/ c/d/e/c/|dBBG B/c/d/B/|A/B/c/A/ B/c/d/B/ c/d/e/c/|e'ee d/e/c B/A/||
AeceAe|gddGB/c/d/B/|AeceAe|e'eed/e/cB/A/||
